X:1
T:Once, twice, thrice, I Julia try'd
T:Once, twice, thrice, I Julia try'd
T:Henry Purcell (1659-1695)
C:Henry Purcell (1659-1695)
%%score [ 1 2 3 ]
L:1/8
M:2/2
K:G
V:1 treble nm="I"
V:2 treble nm="II"
V:3 treble nm="III"
V:1
 E4 z4 | F4 z4 | G4 z2 G2 | A2 B2 c3 d | B4 z2 B2 | A2 BA G2 AG | FG AF G2 FE | E6 ^D2 | %8
w: Once,|twice,|thrice, I|Ju- * * lia|try'd, the|scorn- * * * * *|* * ful _ puss as _|oft de-|
 !fermata!E4 z2 B2 :| %9
w: ny'd, (2)and|
V:2
 G4 z2 e2 | A4 z2 c2 | B3 c B2 AG | F2 G2 A2 F2 | G6 G2 | F2 GF E2 FE | ^D2 B,2 E2 A,2 | B,6 B,2 | %8
w: since, and|since I|can _ _ no _|bet- ter, bet- ter|thrive, I'll|cringe _ _ _ _ _|_ to ne'er a|bitch a-|
 !fermata!E2 B2 G F E2 :| %9
w: live, (3)so kiss my arse,|
V:3
 z2 c2 B A G2 | z2 d2 c B A2 | z2 e2 d c B c | d4 D4 | G4 z2 e2 | e2 d2 z2 c2 | c2 B2 cB AG | %7
w: so kiss my arse,|so kiss my arse,|so kiss my arse, dis-|dain- ful|sow, good|clar- et, good|clar- et is _ my _|
 G6 FE | !fermata!E6 z2 :| %9
w: mis- tress _|now.|

